assets/icons/18px/outline/rectangle-left-filled-18px.svg

<svg fill="none" height="18" width="18" xmlns="http://www.w3.org/2000/svg"><g fill="#fff"><path d="m15.414 13.414.354.354zm.086-5.414v2h1v-2zm-3.5 5.5h-6v1h6zm-9.5-3.5v-2h-1v2zm3.5-5.5h6v-1h-5.999v1zm0 9c-.957 0-1.624-.001-2.128-.069-.49-.065-.748-.186-.933-.37l-.707.707c.402.401.907.574 1.507.654.586.08 1.332.078 2.261.078zm-4.5-3.5c0 .929-.001 1.675.078 2.261.08.6.253 1.106.654 1.507l.707-.707c-.184-.185-.304-.444-.37-.933-.069-.504-.069-1.171-.069-2.128zm14 0c0 .957-.001 1.624-.069 2.128-.065.49-.186.748-.37.933l.707.707c.401-.402.574-.907.654-1.507.08-.585.078-1.332.078-2.261zm-3.5 4.5c.929 0 1.675.001 2.261-.078.6-.08 1.106-.253 1.507-.654l-.707-.707c-.185.184-.444.305-.933.37-.504.068-1.171.069-2.128.069zm4.5-6.5c0-.929.001-1.675-.078-2.261-.08-.6-.253-1.105-.654-1.507l-.707.707c.184.185.305.444.37.933.068.504.069 1.171.069 2.128zm-4.5-3.5c.956 0 1.624.001 2.128.069.49.066.748.186.933.37l.707-.707c-.402-.401-.907-.574-1.507-.654-.586-.08-1.333-.078-2.262-.078v1zm-9.5 3.5c0-.957.001-1.624.069-2.128.066-.49.186-.748.37-.933l-.707-.707c-.401.402-.574.907-.654 1.507-.08.586-.078 1.331-.078 2.261zm3.5-4.5c-.928 0-1.675-.001-2.261.078-.6.08-1.105.253-1.507.654l.707.707c.185-.184.444-.304.933-.37.504-.069 1.172-.069 2.129-.069v-1z"/><path d="m9 12v-6c0-.943 0-1.414-.293-1.707s-.764-.293-1.707-.293h-3c-.943 0-1.414 0-1.707.293s-.293.764-.293 1.707v6c0 .943 0 1.414.293 1.707s.764.293 1.707.293h3c.943 0 1.414 0 1.707-.293s.293-.764.293-1.707z"/></g></svg>

<svg fill="none" height="18" width="18" xmlns="http://www.w3.org/2000/svg"><g fill="currentColor"><path d="M15.414 13.414l.354.354zM15.5 8v2h1V8zM12 13.5H6v1h6zM2.5 10V8h-1v2zM6 4.5h6v-1H6.001v1zm0 9c-.957 0-1.624-.001-2.128-.069-.49-.065-.748-.186-.933-.37l-.707.707c.402.401.907.574 1.507.654.586.08 1.332.078 2.261.078zM1.5 10c0 .929-.001 1.675.078 2.261.08.6.253 1.106.654 1.507l.707-.707c-.184-.185-.304-.444-.37-.933C2.5 11.624 2.5 10.957 2.5 10zm14 0c0 .957-.001 1.624-.069 2.128-.065.49-.186.748-.37.933l.707.707c.401-.402.574-.907.654-1.507.08-.585.078-1.332.078-2.261zM12 14.5c.929 0 1.675.001 2.261-.078.6-.08 1.106-.253 1.507-.654l-.707-.707c-.185.184-.444.305-.933.37-.504.068-1.171.069-2.128.069zM16.5 8c0-.929.001-1.675-.078-2.261-.08-.6-.253-1.105-.654-1.507l-.707.707c.184.185.305.444.37.933.068.504.069 1.171.069 2.128zM12 4.5c.956 0 1.624.001 2.128.069.49.066.748.186.933.37l.707-.707c-.402-.401-.907-.574-1.507-.654-.586-.08-1.333-.078-2.262-.078v1zM2.5 8c0-.957.001-1.624.069-2.128.066-.49.186-.748.37-.933l-.707-.707c-.401.402-.574.907-.654 1.507C1.498 6.325 1.5 7.07 1.5 8zM6 3.5c-.928 0-1.675-.001-2.261.078-.6.08-1.105.253-1.507.654l.707.707c.185-.184.444-.304.933-.37C4.376 4.5 5.044 4.5 6.001 4.5v-1z"/><path d="M9 12V6c0-.943 0-1.414-.293-1.707S7.943 4 7 4H4c-.943 0-1.414 0-1.707.293S2 5.057 2 6v6c0 .943 0 1.414.293 1.707S3.057 14 4 14h3c.943 0 1.414 0 1.707-.293S9 12.943 9 12z"/></g></svg>
